src/assets/bold/lm-merge-cells-bold.svg

<svg width="24" height="24" viewBox="0 0 24 24" fill="none" xmlns="http://www.w3.org/2000/svg" fill="currentColor">
<path d="M3.75 15.0938C4.16421 15.0938 4.5 15.4295 4.5 15.8438V19.5H7.5C7.91421 19.5 8.25 19.8358 8.25 20.25C8.25 20.6642 7.91421 21 7.5 21H3.75C3.33579 21 3 20.6642 3 20.25V15.8438C3 15.4295 3.33579 15.0938 3.75 15.0938Z" fill="black"/>
<path d="M20.25 15.0938C20.6642 15.0938 21 15.4295 21 15.8438V20.25C21 20.6642 20.6642 21 20.25 21H16.5C16.0858 21 15.75 20.6642 15.75 20.25C15.75 19.8358 16.0858 19.5 16.5 19.5H19.5V15.8438C19.5 15.4295 19.8358 15.0938 20.25 15.0938Z" fill="black"/>
<path d="M6.21964 8.75089C6.51253 8.45799 6.98747 8.45799 7.28036 8.75089L10.2804 11.7509C10.421 11.8915 10.5 12.0823 10.5 12.2812C10.5 12.4677 10.4306 12.647 10.306 12.7846L10.2804 12.8116L7.28036 15.8116L7.25235 15.8382C6.95794 16.1042 6.50338 16.0954 6.21964 15.8116C5.93589 15.5279 5.92707 15.0733 6.19308 14.7789L6.21964 14.7509L7.93927 13.0312H3.75C3.33579 13.0312 3 12.6955 3 12.2812C3 11.867 3.33579 11.5312 3.75 11.5312H7.93927L6.21964 9.81161C5.92674 9.51872 5.92674 9.04378 6.21964 8.75089Z" fill="black"/>
<path d="M16.7196 8.75089C17.0125 8.45799 17.4875 8.45799 17.7804 8.75089C18.0733 9.04378 18.0733 9.51872 17.7804 9.81161L16.0607 11.5312H20.25C20.6642 11.5312 21 11.867 21 12.2812C21 12.6955 20.6642 13.0312 20.25 13.0312H16.0607L17.7804 14.7509L17.8069 14.7789C18.0729 15.0733 18.0641 15.5279 17.7804 15.8116C17.4966 16.0954 17.0421 16.1042 16.7477 15.8382L16.7196 15.8116L13.7196 12.8116L13.694 12.7846C13.5694 12.647 13.5 12.4677 13.5 12.2812C13.5 12.0823 13.579 11.8915 13.7196 11.7509L16.7196 8.75089Z" fill="black"/>
<path d="M7.5 3C7.91421 3 8.25 3.33579 8.25 3.75C8.25 4.16421 7.91421 4.5 7.5 4.5H4.5V8.15625C4.5 8.57046 4.16421 8.90625 3.75 8.90625C3.33579 8.90625 3 8.57046 3 8.15625V3.75C3 3.33579 3.33579 3 3.75 3H7.5Z" fill="black"/>
<path d="M20.25 3C20.6642 3 21 3.33579 21 3.75V8.15625C21 8.57046 20.6642 8.90625 20.25 8.90625C19.8358 8.90625 19.5 8.57046 19.5 8.15625V4.5H16.5C16.0858 4.5 15.75 4.16421 15.75 3.75C15.75 3.33579 16.0858 3 16.5 3H20.25Z" fill="black"/>
</svg>

<svg xmlns="http://www.w3.org/2000/svg" width="24" height="24" fill="currentColor" viewBox="0 0 24 24">
  <path d="M3.75 15.094a.75.75 0 0 1 .75.75V19.5h3a.75.75 0 0 1 0 1.5H3.75a.75.75 0 0 1-.75-.75v-4.406a.75.75 0 0 1 .75-.75Zm16.5 0a.75.75 0 0 1 .75.75v4.406a.75.75 0 0 1-.75.75H16.5a.75.75 0 0 1 0-1.5h3v-3.656a.75.75 0 0 1 .75-.75ZM6.22 8.75a.75.75 0 0 1 1.06 0l3 3a.75.75 0 0 1 .026 1.035l-.026.027-3 3-.028.026a.75.75 0 0 1-1.059-1.06l.027-.027 1.72-1.72H3.75a.75.75 0 1 1 0-1.5h4.19l-1.72-1.72a.75.75 0 0 1 0-1.06Zm10.5 0a.75.75 0 0 1 1.06 1.062l-1.72 1.72h4.19a.75.75 0 0 1 0 1.5h-4.19l1.72 1.719.027.028a.75.75 0 0 1-1.06 1.06l-.027-.027-3-3-.026-.027a.75.75 0 0 1 .026-1.034l3-3ZM7.5 3a.75.75 0 0 1 0 1.5h-3v3.656a.75.75 0 0 1-1.5 0V3.75A.75.75 0 0 1 3.75 3H7.5Zm12.75 0a.75.75 0 0 1 .75.75v4.406a.75.75 0 0 1-1.5 0V4.5h-3a.75.75 0 0 1 0-1.5h3.75Z"/>
</svg>
